svgs/regular/card-spade.svg

<svg xmlns="http://www.w3.org/2000/svg" viewBox="0 0 384 512"><!--! Font Awesome Pro 6.4.0 by @fontawesome - https://fontawesome.com License - https://fontawesome.com/license (Commercial License) Copyright 2023 Fonticons, Inc. --><path d="M64 48c-8.8 0-16 7.2-16 16V448c0 8.8 7.2 16 16 16H320c8.8 0 16-7.2 16-16V64c0-8.8-7.2-16-16-16H64zM0 64C0 28.7 28.7 0 64 0H320c35.3 0 64 28.7 64 64V448c0 35.3-28.7 64-64 64H64c-35.3 0-64-28.7-64-64V64zm175 77.2c9.4-9.4 24.6-9.4 33.9 0l22.6 22.6 59.7 59.7c21.9 21.9 21.9 57.3 0 79.2s-57.3 21.9-79.2 0l-3.2-3.2c-.3-.3-.6-.6-1-.9V336h16c8.8 0 16 7.2 16 16s-7.2 16-16 16H160c-8.8 0-16-7.2-16-16s7.2-16 16-16h16V298.6c-.3 .3-.7 .6-1 .9l-3.2 3.2c-21.9 21.9-57.3 21.9-79.2 0s-21.9-57.3 0-79.2l59.7-59.7L175 141.2z"/></svg>

<svg xmlns="http://www.w3.org/2000/svg" viewBox="0 0 384 512"><!--! Font Awesome Pro 6.3.0 by @fontawesome - https://fontawesome.com License - https://fontawesome.com/license (Commercial License) Copyright 2023 Fonticons, Inc. --><path d="M175 141.2C184.4 131.8 199.6 131.8 208.1 141.2L291.3 223.5C313.2 245.4 313.2 280.8 291.3 302.7C269.5 324.6 234 324.6 212.1 302.7L208.1 299.5C208.7 299.2 208.3 298.9 207.1 298.6V335.1H223.1C232.8 335.1 239.1 343.2 239.1 351.1C239.1 360.8 232.8 367.1 223.1 367.1H159.1C151.2 367.1 143.1 360.8 143.1 351.1C143.1 343.2 151.2 335.1 159.1 335.1H175.1V298.6C175.7 298.9 175.3 299.2 175 299.5L171.9 302.7C149.1 324.6 114.5 324.6 92.67 302.7C70.8 280.8 70.8 245.4 92.67 223.5L175 141.2zM0 64C0 28.65 28.65 0 64 0H320C355.3 0 384 28.65 384 64V448C384 483.3 355.3 512 320 512H64C28.65 512 0 483.3 0 448V64zM48 64V448C48 456.8 55.16 464 64 464H320C328.8 464 336 456.8 336 448V64C336 55.16 328.8 48 320 48H64C55.16 48 48 55.16 48 64z"/></svg>
